X: 42543
T: When Are You Coming Over?
R: reel
M: 4/4
K: Amixolydian
a2ed cAAc|BGGB dBBe|^gaed cAAc|BGGB cAA^g-|
^gaed cAAc|BGGB d2cd|effe fgaf|gBBc d2cd||
eaaA AccA|eaaA d2cd|eaaA AccA|BGGB d2cd|
eaaA AccA|eaaA d2cd|effe fgaf|gBBc dze2||
a2ed cAA=c|BDGB de~f2|~a2ed cAAc|BE^GB A2ce|
a2ed cA~A2|BDGB de~f2|efge ~f2af|gB~B2 dAB/c/d||
ea~a2 ABcd|eaec ~d2cd|ea~a2 AB=cA|BDGB dBcd|
ea~a2 ABcd|eaec ~d2cd|efge ~f2af|gB~B2 def^g||

